svg/icon/ven.svg

<svg height="32" viewBox="0 0 32 32" width="32" xmlns="http://www.w3.org/2000/svg" xmlns:xlink="http://www.w3.org/1999/xlink"><defs><linearGradient id="a" x1="50%" x2="50%" y1="0%" y2="100%"><stop offset="0" stop-color="#fff" stop-opacity=".5"/><stop offset="1" stop-opacity=".5"/></linearGradient><circle id="b" cx="16" cy="15" r="15"/><filter id="c" height="111.7%" width="111.7%" x="-5.8%" y="-4.2%"><feOffset dy=".5" in="SourceAlpha" result="shadowOffsetOuter1"/><feGaussianBlur in="shadowOffsetOuter1" result="shadowBlurOuter1" stdDeviation=".5"/><feComposite in="shadowBlurOuter1" in2="SourceAlpha" operator="out" result="shadowBlurOuter1"/><feColorMatrix in="shadowBlurOuter1" values="0 0 0 0 0   0 0 0 0 0   0 0 0 0 0  0 0 0 0.199473505 0"/></filter><path id="d" d="m14.7383779 23.7343956-7.69876403-15.6881749c-.12532871-.25072426.06266436-.5462207.34017795-.5462207h2.66771128c.1432328 0 .2775135.08058994.3401779.20595207l5.6218881 11.38109033c.5013149 1.0208059 1.9515472 1.0208059 2.452862 0l5.6039841-11.37213589c.0626643-.12536213.1969451-.20595207.3401779-.20595207h.3312259c.1969451 0 .3222738.20595207.2327533.37608638l-7.7793324 15.84935478c-.5013149 1.0208059-1.9515472 1.0208059-2.452862 0z"/><filter id="e" height="120.6%" width="119.4%" x="-9.7%" y="-7.4%"><feOffset dy=".5" in="SourceAlpha" result="shadowOffsetOuter1"/><feGaussianBlur in="shadowOffsetOuter1" result="shadowBlurOuter1" stdDeviation=".5"/><feColorMatrix in="shadowBlurOuter1" values="0 0 0 0 0   0 0 0 0 0   0 0 0 0 0  0 0 0 0.204257246 0"/></filter></defs><g fill="none" fill-rule="evenodd"><use fill="#000" filter="url(#c)" xlink:href="#b"/><use fill="#15bdff" xlink:href="#b"/><use fill="url(#a)" xlink:href="#b"/><circle cx="16" cy="15" r="14.5" stroke="#000" stroke-opacity=".097"/><g fill-rule="nonzero"><use fill="#000" filter="url(#e)" xlink:href="#d"/><use fill="#fff" fill-rule="evenodd" xlink:href="#d"/></g></g></svg>

<svg xmlns="http://www.w3.org/2000/svg" xmlns:xlink="http://www.w3.org/1999/xlink" width="32" height="32" viewBox="0 0 32 32">
  <defs>
    <linearGradient id="ven-c" x1="50%" x2="50%" y1="0%" y2="100%">
      <stop offset="0%" stop-color="#FFF" stop-opacity=".5"/>
      <stop offset="100%" stop-opacity=".5"/>
    </linearGradient>
    <circle id="ven-b" cx="16" cy="15" r="15"/>
    <filter id="ven-a" width="111.7%" height="111.7%" x="-5.8%" y="-4.2%" filterUnits="objectBoundingBox">
      <feOffset dy=".5" in="SourceAlpha" result="shadowOffsetOuter1"/>
      <feGaussianBlur in="shadowOffsetOuter1" result="shadowBlurOuter1" stdDeviation=".5"/>
      <feComposite in="shadowBlurOuter1" in2="SourceAlpha" operator="out" result="shadowBlurOuter1"/>
      <feColorMatrix in="shadowBlurOuter1" values="0 0 0 0 0   0 0 0 0 0   0 0 0 0 0  0 0 0 0.199473505 0"/>
    </filter>
    <path id="ven-e" d="M14.7383779,23.7343956 L7.03961387,8.0462207 C6.91428516,7.79549644 7.10227823,7.5 7.37979182,7.5 L10.0475031,7.5 C10.1907359,7.5 10.3250166,7.58058994 10.387681,7.70595207 L16.0095691,19.0870424 C16.510884,20.1078483 17.9611163,20.1078483 18.4624311,19.0870424 L24.0664152,7.71490651 C24.1290795,7.58954438 24.2633603,7.50895444 24.4065931,7.50895444 L24.737819,7.50895444 C24.9347641,7.50895444 25.0600928,7.71490651 24.9705723,7.88504082 L17.1912399,23.7343956 C16.689925,24.7552015 15.2396927,24.7552015 14.7383779,23.7343956 Z"/>
    <filter id="ven-d" width="119.4%" height="120.6%" x="-9.7%" y="-7.4%" filterUnits="objectBoundingBox">
      <feOffset dy=".5" in="SourceAlpha" result="shadowOffsetOuter1"/>
      <feGaussianBlur in="shadowOffsetOuter1" result="shadowBlurOuter1" stdDeviation=".5"/>
      <feColorMatrix in="shadowBlurOuter1" values="0 0 0 0 0   0 0 0 0 0   0 0 0 0 0  0 0 0 0.204257246 0"/>
    </filter>
  </defs>
  <g fill="none" fill-rule="evenodd">
    <use fill="#000" filter="url(#ven-a)" xlink:href="#ven-b"/>
    <use fill="#15BDFF" xlink:href="#ven-b"/>
    <use fill="url(#ven-c)" style="mix-blend-mode:soft-light" xlink:href="#ven-b"/>
    <circle cx="16" cy="15" r="14.5" stroke="#000" stroke-opacity=".097"/>
    <g fill-rule="nonzero">
      <use fill="#000" filter="url(#ven-d)" xlink:href="#ven-e"/>
      <use fill="#FFF" fill-rule="evenodd" xlink:href="#ven-e"/>
    </g>
  </g>
</svg>
